X:21115 
T:MADAM IF YOU PLEASE (hornpipe) 
B:DMI.0944
Z:Nordberg/Black
N:Straight G major just doesn't sound right. I suspect that one or 
more of the accented F's in here should be lowered to F natural.
To get back to the DMI sound, change the key signature to G> 
per Version 2 below. 
R:hornpipe
%Q:1/4=150
M:C|
L:1/8
K:C
"G mix"
GF|DGBD G2FD|GAcd fdge|fdcA dcBG|FDBA GFDC|
DGGF DGBA|GAcd f2ge|fd cA BGAF|D2G2G2:|
Bc|dcde fABg|fdcA d2de|fedc Ac AG|FDBA GFDC|
DGGF GBAG|FGAB cd (3efg|fdce dcBA|G2GFG2:|


%%%

